X:1
T:Something for Thee
T:Something for Thee
T:E. H. Packard
T:William Henry Gardner, 1892
T:Public Domain Courtesy of the Cyber Hymnal™
C:E. H. Packard
Z:Public Domain
Z:Courtesy of the Cyber Hymnal™
%%score ( 1 2 ) ( 3 4 )
L:1/8
Q:1/4=88
M:6/8
K:F
V:1 treble 
V:2 treble 
V:3 bass 
V:4 bass 
V:1
 C | [CA][CG][CF] [CF][CG][CF] | [CF] [CE]4 [CE]/[DF]/ | [CG][CG][CG] [EA]2 [GB] | [FA]3- [FA]2 C | %5
w: 1.~My|tal- ents are few, dear- est|Mas- ter, Yet I|long of some use to|be; * Then|
w: 2.~I|can- not with fi- er- y|warn- ings Make the|wick- ed their guilt to|see; * Yet|
w: 3.~No|rich- es, a- las! can I|give Thee, For they|ne- ver have come to|me; * But|
 [CA][CG][CF] [CF][EG][_EA] | [DB] [DB]3- [DB]2 [DB] | [CA][CG][CF] [Ec][EG][CEA] | %8
w: tell me, I pray Thee, dear|Je- sus, * How|may I do some- thing for|
w: sure- ly some path- way is|o- pen, * Where|I may do some- thing for|
w: free- ly I lay on Thy|al- tar, * My|life, to do some- thing for|
 [CF]3- [CF]2 z ||"^Refrain" [Ac]3 [GB]2 [FA] | [GB]6 | [GB]3 [FA]2 [EG] | [FA]3- [FA]2 [FA] | %13
w: Thee? *|||||
w: Thee? *|Some- thing for|Thee,|some- thing for|Thee, * Oh,|
w: Thee. *|||||
 [Fc][FA][CF] F[EG][_EA] | [DB] [DB]4 [DBd] | [Fc]F[CA] [Ec][EG][CEA] | [CF]3- [CF]2 |] %17
w: ||||
w: tell me, I pray Thee, dear|Mas- ter, How|may I do some- thing for|Thee? *|
w: ||||
V:2
 C | x6 | x6 | x6 | x5 C | x6 | x7 | x6 | x6 || x6 | x6 | x6 | x6 | x3 F x2 | x6 | x F x4 | x5 |] %17
V:3
 [F,A,] | [F,C][F,B,][F,A,] [F,A,][F,B,][F,A,] | [G,B,] [G,B,]4 [G,B,]/[F,A,]/ | %3
w: ~|~ ~ ~ ~ ~ ~|~ ~ ~ ~|
 [E,B,][E,B,][E,B,] C2 [E,C] | [F,C]3- [F,C]2 [F,A,] | [F,C][F,B,][F,A,] [F,A,][F,B,][F,C] | %6
w: ~ ~ ~ ~ ~|~ * ~|~ ~ ~ ~ ~ ~|
 [B,,B,] [B,,F,]3- [B,,F,]2 [B,,F,] | [C,F,][C,B,][C,A,] [C,G,][C,B,][C,B,] | %8
w: ~ ~ * ~|~ ~ ~ ~ ~ ~|
 [F,,F,A,]3- [F,,F,A,]2 z || z6 | [C,C][E,C][G,C] [C,C]3 | z6 | [F,C][C,C][A,,C] [F,,C]2 [F,C] | %13
w: ~ *||Some- thing for Thee,||some- thing for Thee, *|
 [F,A,][F,C][F,A,] [F,A,][F,B,][F,C] | [B,,B,] [B,,F,]4 [B,,F,] | %15
w: ||
 [C,A,][C,A,][C,F,] [C,G,][C,B,][C,B,] | [F,,F,A,]3- [F,,F,A,]2 |] %17
w: ||
V:4
 x | x6 | x6 | x3 (C,D,) x | x6 | x6 | x7 | x6 | x6 || x6 | x6 | x6 | x6 | x6 | x6 | x6 | x5 |] %17

